22x22/actions/remove-link.svg

<svg xmlns="http://www.w3.org/2000/svg" viewBox="0 0 22 22">
  <defs id="defs3051">
    <style type="text/css" id="current-color-scheme">
      .ColorScheme-Text {
        color:#5d656b;
      }
      </style>
  </defs>
 <path 
     style="fill:currentColor;fill-opacity:1;stroke:none" 
     d="M 6 3 L 6 5 L 3 5 L 3 6 L 6 6 L 6 8 L 10 8 L 10 7 L 7 7 L 7 4 L 10 4 L 10 3 L 6 3 z M 12 3 L 12 4 L 15 4 L 15 7 L 12 7 L 12 8 L 16 8 L 16 6 L 19 6 L 19 5 L 16 5 L 16 3 L 12 3 z M 10 5 L 10 6 L 12 6 L 12 5 L 10 5 z "
     class="ColorScheme-Text"
     />
 <path 
     style="fill:#da4453;fill-opacity:1;stroke:none" 
     d="M 14.707031 14.033203 L 14 14.740234 L 15.792969 16.533203 L 14 18.326172 L 14.707031 19.033203 L 16.5 17.240234 L 18.292969 19.033203 L 19 18.326172 L 17.207031 16.533203 L 19 14.740234 L 18.292969 14.033203 L 16.5 15.826172 L 14.707031 14.033203 z "
     />
</svg>

<svg xmlns="http://www.w3.org/2000/svg" viewBox="0 0 22 22"><path style="fill:currentColor;fill-opacity:1;stroke:none;color:#5d656b" d="M6 3v2H3v1h3v2h4V7H7V4h3V3H6zm6 0v1h3v3h-3v1h4V6h3V5h-3V3h-4zm-2 2v1h2V5h-2z"/><path style="fill:#da4453;fill-opacity:1;stroke:none" d="M14.707 14.033 14 14.74l1.793 1.793L14 18.326l.707.707L16.5 17.24l1.793 1.793.707-.707-1.793-1.793L19 14.74l-.707-.707-1.793 1.793-1.793-1.793z"/></svg>
